!!!OTL: Anning minge
!!!ARE: Asia, China,ÿYunnan, Anning
!! II, 87
!!!SCT: C1498
!!!YEM: Copyright 1995, estate of Helmut Schaffrath.
**kern
*ICvox
*Ivox
*M3/4
*k[b-e-a-]
*E-:
{4ff
8ff
8gg
4ff
=1
8ff
8ee-
4cc
4b-
=2
4ff
4ff
8cc
8b-
=3
4b-
2f}
=4
{4f
4ff
4ee-
=5
8cc
8b-
4b-
4f
=6
4cc
4b-
8f
8e-
=7
2.f}
=8
{4ff
8ff
8bb-
8gg
8ff
=9
8ff
8ee-
4ee-
4cc
=10
4ff
4ff
8cc
8b-
=11
4b-
2f}
=12
{4f
4ff
4ee-
=13
8cc
8b-
4b-
4f
=14
4cc
4b-
8f
8e-
=15
2.f}
==
!!!AGN: Xiaodiao
!!!AMT: simple triple
!!!AIN: vox
!!!EED: Helmut Schaffrath
!!!EEV: 1.0
*-
